svg/blobs-icons/no-decorations/ping-pong.svg

<svg xmlns="http://www.w3.org/2000/svg" xmlns:xlink="http://www.w3.org/1999/xlink" preserveAspectRatio="xMidYMid" width="218" height="218" viewBox="0 0 218 218"><defs><style>.cls-3{fill:#fbb713}.cls-4{fill:#020403;opacity:.35}.cls-5{fill:#ededed}.cls-6{fill:#020403;opacity:.2}.cls-7{fill:#4f4f6f}.cls-8{fill:#142a3b}</style></defs><g id="group-125svg"><path d="M92.059 171.087C129.603 193.863 161.054 177.401 192.503 139.96 224.067 102.385 226.869 54.298 195.231 22.659 169.457-3.115 132.811-6.533 99.761 10.56L53.762 49.857c-18.863 23.76-23.78 48.149-6.936 75.985l45.233 45.245z" id="path-1" class="cls-3" fill-rule="evenodd"/><path d="M108.434 62.138c-11.654 11.653-30.548 11.653-42.201.0-11.653-11.654-11.653-30.548.0-42.201 11.653-11.654 30.547-11.654 42.201.0 11.653 11.653 11.653 30.547.0 42.201z" id="path-2" class="cls-4" fill-rule="evenodd"/><path d="M97.244 50.949c-11.654 11.652-30.548 11.652-42.202.0-11.652-11.654-11.652-30.548.0-42.203 11.654-11.653 30.548-11.653 42.202.0 11.652 11.655 11.652 30.549.0 42.203z" id="path-3" class="cls-5" fill-rule="evenodd"/><path d="M97.244 8.745c-3.101-3.099-6.721-5.35-10.574-6.799C97.673 13.643 97.487 32.031 86.053 43.465 77.501 52.018 65.055 54.268 54.426 50.267 54.637 50.491 54.824 50.73 55.042 50.948c11.654 11.653 30.548 11.653 42.202.0 11.652-11.653 11.652-30.547.0-42.203z" id="path-4" class="cls-6" fill-rule="evenodd"/><path d="M60.954 34.545c-1.88.0-3.466-1.454-3.603-3.358C56.965 25.734 58.96 20.389 62.823 16.526c3.249-3.25 7.563-5.197 12.147-5.481C76.964 10.926 78.677 12.436 78.801 14.43 78.924 16.421 77.41 18.137 75.418 18.261 72.594 18.435 69.938 19.635 67.934 21.638 65.553 24.019 64.325 27.313 64.563 30.675 64.704 32.666 63.204 34.395 61.214 34.536 61.127 34.542 61.041 34.545 60.954 34.545z" id="path-5" class="cls-7" fill-rule="evenodd"/><path d="M35.907 83.62C33.469 97.157 36.154 111.255 45.303 126.374c5.707 9.429 3.286 21.671-5.449 28.389L4.166 182.216c-5.083 3.91-5.57 11.4-1.035 15.935l15.622 15.622C23.288 218.308 30.776 217.823 34.687 212.738L62.132 177.06C68.856 168.318 81.108 165.9 90.536 171.618 105.69 180.812 119.842 183.52 133.412 181.127L35.907 83.62z" id="path-6" class="cls-8" fill-rule="evenodd"/><path d="M192.503 117.558c-31.449 37.439-62.9 53.901-100.444 31.126C82.631 142.964 70.379 145.384 63.655 154.124L36.21 189.804C32.299 194.887 24.811 195.373 20.276 190.838L8.76 179.322S5.69 181.684 5.69 181.684c-5.084 3.911-5.571 11.4-1.036 15.935l15.622 15.623C24.811 217.776 32.299 217.289 36.21 212.205l27.445-35.677C70.379 167.788 82.631 165.367 92.059 171.087 129.603 193.863 161.054 177.401 192.503 139.96c19.306-22.983 27.789-49.89 24.274-74.568C214.293 83.295 206.077 101.396 192.503 117.558z" id="path-7" class="cls-4" fill-rule="evenodd"/><path d="M45.273 105.819C40.648 98.175 37.718 90.801 36.212 83.62 33.18 97.694 36.78 112.361 46.303 128.135 50.331 121.433 49.527 112.847 45.273 105.819z" id="path-8" class="cls-4" fill-rule="evenodd"/></g></svg>

<svg xmlns="http://www.w3.org/2000/svg" xmlns:xlink="http://www.w3.org/1999/xlink" preserveAspectRatio="xMidYMid" width="218" height="218" viewBox="0 0 218 218">
  <defs>
    <style>

      .cls-3 {
        fill: #fbb713;
      }

      .cls-4 {
        fill: #020403;
        opacity: 0.35;
      }

      .cls-5 {
        fill: #ededed;
      }

      .cls-6 {
        fill: #020403;
        opacity: 0.2;
      }

      .cls-7 {
        fill: #4f4f6f;
      }

      .cls-8 {
        fill: #142a3b;
      }
    </style>
  </defs>
  <g id="group-125svg">
    <path d="M92.059,171.087 C129.603,193.863 161.054,177.401 192.503,139.960 C224.067,102.385 226.869,54.298 195.231,22.659 C169.457,-3.115 132.811,-6.533 99.761,10.560 C99.761,10.560 53.762,49.857 53.762,49.857 C34.899,73.617 29.982,98.006 46.826,125.842 C46.826,125.842 92.059,171.087 92.059,171.087 Z" id="path-1" class="cls-3" fill-rule="evenodd"/>
    <path d="M108.434,62.138 C96.780,73.791 77.886,73.791 66.233,62.138 C54.580,50.484 54.580,31.590 66.233,19.937 C77.886,8.283 96.780,8.283 108.434,19.937 C120.087,31.590 120.087,50.484 108.434,62.138 Z" id="path-2" class="cls-4" fill-rule="evenodd"/>
    <path d="M97.244,50.949 C85.590,62.601 66.696,62.601 55.042,50.949 C43.390,39.295 43.390,20.401 55.042,8.746 C66.696,-2.907 85.590,-2.907 97.244,8.746 C108.896,20.401 108.896,39.295 97.244,50.949 Z" id="path-3" class="cls-5" fill-rule="evenodd"/>
    <path d="M97.244,8.745 C94.143,5.646 90.523,3.395 86.670,1.946 C97.673,13.643 97.487,32.031 86.053,43.465 C77.501,52.018 65.055,54.268 54.426,50.267 C54.637,50.491 54.824,50.730 55.042,50.948 C66.696,62.601 85.590,62.601 97.244,50.948 C108.896,39.295 108.896,20.401 97.244,8.745 Z" id="path-4" class="cls-6" fill-rule="evenodd"/>
    <path d="M60.954,34.545 C59.074,34.545 57.488,33.091 57.351,31.187 C56.965,25.734 58.960,20.389 62.823,16.526 C66.072,13.276 70.386,11.329 74.970,11.045 C76.964,10.926 78.677,12.436 78.801,14.430 C78.924,16.421 77.410,18.137 75.418,18.261 C72.594,18.435 69.938,19.635 67.934,21.638 C65.553,24.019 64.325,27.313 64.563,30.675 C64.704,32.666 63.204,34.395 61.214,34.536 C61.127,34.542 61.041,34.545 60.954,34.545 Z" id="path-5" class="cls-7" fill-rule="evenodd"/>
    <path d="M35.907,83.620 C33.469,97.157 36.154,111.255 45.303,126.374 C51.010,135.803 48.589,148.045 39.854,154.763 C39.854,154.763 4.166,182.216 4.166,182.216 C-0.917,186.126 -1.404,193.616 3.131,198.151 C3.131,198.151 18.753,213.773 18.753,213.773 C23.288,218.308 30.776,217.823 34.687,212.738 C34.687,212.738 62.132,177.060 62.132,177.060 C68.856,168.318 81.108,165.900 90.536,171.618 C105.690,180.812 119.842,183.520 133.412,181.127 C133.412,181.127 35.907,83.620 35.907,83.620 Z" id="path-6" class="cls-8" fill-rule="evenodd"/>
    <path d="M192.503,117.558 C161.054,154.997 129.603,171.459 92.059,148.684 C82.631,142.964 70.379,145.384 63.655,154.124 C63.655,154.124 36.210,189.804 36.210,189.804 C32.299,194.887 24.811,195.373 20.276,190.838 C20.276,190.838 8.760,179.322 8.760,179.322 C8.760,179.322 5.690,181.684 5.690,181.684 C0.606,185.595 0.119,193.084 4.654,197.619 C4.654,197.619 20.276,213.242 20.276,213.242 C24.811,217.776 32.299,217.289 36.210,212.205 C36.210,212.205 63.655,176.528 63.655,176.528 C70.379,167.788 82.631,165.367 92.059,171.087 C129.603,193.863 161.054,177.401 192.503,139.960 C211.809,116.977 220.292,90.070 216.777,65.392 C214.293,83.295 206.077,101.396 192.503,117.558 Z" id="path-7" class="cls-4" fill-rule="evenodd"/>
    <path d="M45.273,105.819 C40.648,98.175 37.718,90.801 36.212,83.620 C33.180,97.694 36.780,112.361 46.303,128.135 C50.331,121.433 49.527,112.847 45.273,105.819 Z" id="path-8" class="cls-4" fill-rule="evenodd"/>
  </g>
</svg>
